X:197
T:Polonäs
T:ur Kumlins notsamling (nr 197)
B:Kumlins notsamling, nr 197
B:http://www.smus.se/earkiv/fmk/browselarge.php?lang=sw&katalogid=Ma+4&bildnr=00039
O:Närke
R:Slängpolska
Z:Nils Liberg
M:3/4
L:1/16
N:Se även +
K:Dm
d4 ABAG FGFE | D2e2 gfed d^c=BA | F2FE D2D^C D2a2 | fed^c d4 D4 ::
f4 F2f2 fgaf | g2E2 E2g2 g4 | a2f2 b2g2 a2f2 | agfe f4 F4 |
a4>^c4 d2e2 | f2ef gfed d^c=BA | F2FE D2^C2 D2a2 | fed^c d4 D4 :|

